#define pad-inv_width 26
#define pad-inv_height 26
static unsigned char pad-inv_bits[] = {
   0xff, 0xff, 0xff, 0xff, 0xff, 0x8f, 0x88, 0xff, 0xff, 0x77, 0x77, 0xff,
   0xff, 0x77, 0x77, 0xff, 0xff, 0x77, 0x77, 0xff, 0xff, 0x03, 0x00, 0xfe,
   0xff, 0xed, 0x6e, 0xfe, 0xff, 0xfd, 0x3f, 0xfe, 0xff, 0x56, 0x35, 0xff,
   0xff, 0xaa, 0x2a, 0xff, 0x7f, 0xff, 0x3f, 0xff, 0x7f, 0xff, 0x1f, 0xff,
   0xbf, 0x55, 0x9d, 0xff, 0xbf, 0xaa, 0x9a, 0xff, 0xdf, 0xff, 0x8f, 0xff,
   0xdf, 0xff, 0xcf, 0xff, 0xaf, 0xaa, 0xce, 0xff, 0x6f, 0x55, 0xcd, 0xff,
   0xf7, 0xff, 0xe7, 0xff, 0xf7, 0xff, 0xe7, 0xff, 0xab, 0xaa, 0xe6, 0xff,
   0x5b, 0x55, 0xe7, 0xff, 0xf9, 0xff, 0xf3, 0xff, 0x03, 0x00, 0xf0, 0xff,
   0x01, 0x00, 0xf8, 0xff, 0xff, 0xff, 0xff, 0xff};
