#define pad_width 26
#define pad_height 26
static unsigned char pad_bits[] = {
   0x00, 0x00, 0x00, 0x00, 0x00, 0x70, 0x77, 0x00, 0x00, 0x88, 0x88, 0x00,
   0x00, 0x88, 0x88, 0x00, 0x00, 0x88, 0x88, 0x00, 0x00, 0xfc, 0xff, 0x01,
   0x00, 0x12, 0x91, 0x01, 0x00, 0x02, 0xc0, 0x01, 0x00, 0xa9, 0xca, 0x00,
   0x00, 0x55, 0xd5, 0x00, 0x80, 0x00, 0xc0, 0x00, 0x80, 0x00, 0xe0, 0x00,
   0x40, 0xaa, 0x62, 0x00, 0x40, 0x55, 0x65, 0x00, 0x20, 0x00, 0x70, 0x00,
   0x20, 0x00, 0x30, 0x00, 0x50, 0x55, 0x31, 0x00, 0x90, 0xaa, 0x32, 0x00,
   0x08, 0x00, 0x18, 0x00, 0x08, 0x00, 0x18, 0x00, 0x54, 0x55, 0x19, 0x00,
   0xa4, 0xaa, 0x18, 0x00, 0x06, 0x00, 0x0c, 0x00, 0xfc, 0xff, 0x0f, 0x00,
   0xfe, 0xff, 0x07, 0x00, 0x00, 0x00, 0x00, 0x00};
